temp/img/footer/new-mail.svg

<svg width="18" height="18" viewBox="0 0 18 18" fill="none" xmlns="http://www.w3.org/2000/svg"><path d="M16 2.5H2a2 2 0 0 0-2 2v9a2 2 0 0 0 2 2h14a2 2 0 0 0 2-2v-9a2 2 0 0 0-2-2zM6.316 9.816l1.602 1.4c.305.266.691.398 1.082.398.391 0 .777-.133 1.082-.398l1.602-1.4-.037.037 3.646 3.646H2.707l3.646-3.646-.037-.037zM2 12.793V6.04l3.602 3.151L2 12.793zm10.398-3.602L16 6.04v6.75l-3.602-3.599zM16 4.5v.21l-6.576 5.754a.68.68 0 0 1-.848 0L2 4.71V4.5h14z" fill="#B4EC50"/></svg>

<svg width="18" height="18" viewBox="0 0 18 18" fill="none" xmlns="http://www.w3.org/2000/svg">
<path d="M16 2.5H2C0.896 2.5 0 3.396 0 4.5V13.5C0 14.604 0.896 15.5 2 15.5H16C17.104 15.5 18 14.604 18 13.5V4.5C18 3.396 17.104 2.5 16 2.5ZM6.316 9.816L7.918 11.216C8.223 11.482 8.609 11.614 9 11.614C9.391 11.614 9.777 11.481 10.082 11.216L11.684 9.816L11.647 9.853L15.293 13.499H2.707L6.353 9.853L6.316 9.816ZM2 12.793V6.04L5.602 9.191L2 12.793ZM12.398 9.191L16 6.04V12.79L12.398 9.191ZM16 4.5V4.71L9.424 10.464C9.197 10.662 8.803 10.662 8.576 10.464L2 4.71V4.5H16Z" fill="#B4EC50"/>
</svg>
